X: 21663
T: Kilmore K
R: reel
M: 4/4
K: Dmajor
A|:d/c/d fe dcBd|cBAc BA F/G/A|dAfe defg|a2 ^g/a/b a=gfe|
dafd cgec|d/c/B c/B/A BA G/F/E|DE F/G/A dBAF|1 EDCE D2 A/B/c:|2 EDCE D2 CB,|
|:A,B,CD EFGE|DEFG AdcA|defa gfed|c/B/c dB A/B/A d=c|
B/A/G Bd AFdA|GE=cG ECGE|CDEF GAce|1 fa g/f/e d2 DB,:|2 fa g/f/e d2|

